X:1
T:Chant d'automne
T:Chant d'automne.
T:S.Liapunow,Op.26
C:S.Liapunow,Op.26
%%score { ( 1 4 5 6 ) | ( 2 3 ) }
L:1/8
Q:1/4=88
M:4/4
K:A
V:1 treble nm="グランドピアノ"
V:4 treble 
V:5 treble 
V:6 treble 
V:2 bass 
V:3 bass 
V:1
"^Andantino." z2!p!!ped! (F2 E2 D2)!ped-up! | (A,>!ped!B, C4 F2)!ped-up! | %2
 (A>!ped!B c4 f2)!ped-up!!ped! | %3
"^poco rit."!>(! (a>b[Q:1/4=84] c'2)[Q:1/4=80]!ped!!ped-up! (f'2 a'>b')!ped-up![Q:1/4=40]!ped!!>)! | %4
"^a tempo"!pp![Q:1/4=88] c''2 z2!ped-up!!ped! z4!ped-up!!ped! | z8!ped-up!!ped!!ped-up!!ped! | %6
 z2!p!"_cantabile" (f2!ped-up!!ped! e2 d2)!ped-up!!ped! | (A>B c4!ped-up!!ped! F2)!ped-up!!ped! | %8
 (B3 c!ped-up!!ped! B A2 G)!ped-up!!ped! |{/B} (A>G F4)!ped-up!!ped! z2!ped-up!!ped! | %10
 z2!<(! (f2!ped-up!!ped! e2 d2)!ped-up!!ped! | (A>B c4!ped-up!!ped! F2)!ped-up!!ped!!<)! | %12
!p! B3 (B-!ped-up!!ped![Q:1/4=86]!>(! B c2{/e} d)!ped-up!!ped![Q:1/4=84] | %13
 (c>B A4)!ped-up!!ped!!>)![Q:1/4=80] E2!ped-up!!ped! | %14
!p![Q:1/4=84] (F2[Q:1/4=88] G>!ped-up!!ped!A B2 c2)!ped-up!!ped! | %15
 (G3{/B} A!ped-up!!ped! F2) c2!ped-up!!ped! |!<(! (B2 c>!ped-up!!ped!d e2 f2)!ped-up!!ped! | %17
[Q:1/4=84] c3[Q:1/4=82]{/e} d!ped-up!!ped! B2!<)![Q:1/4=88] z2!ped-up!!ped! | %18
 z2[Q:1/4=86]"_dolce"!p! (d2!ped-up!!ped![Q:1/4=84] e2[Q:1/4=80] f2)!ped-up!!ped! | %19
[Q:1/4=88] (c3 ^A!ped-up!!ped! B2) d2!ped-up!!ped! | (c2 ^^F4!ped-up!!ped! G2)!ped-up!!ped! | %21
 (B4!ped-up!!ped! A2) z2!ped-up!!ped! | %22
 z2[Q:1/4=86]!<(! (B2!ped-up!!ped![Q:1/4=84] c2[Q:1/4=82] d2)!ped-up!!ped!!<)! | %23
[Q:1/4=88]!p!!>(! (A3 ^^F!ped-up!!ped! G4)!ped-up!!ped!!>)! | %24
!p! z (^A2 B!ped-up!!ped![Q:1/4=86] c e2 d)!ped-up!!ped![Q:1/4=84] | %25
[Q:1/4=88]!>(! (=A3 ^^F!ped-up!!ped! G4)!ped-up!!ped!!>)! | %26
 z2!p!!<(! (c2!ped-up!!ped! B2 A2)!ped-up!!ped! | (F2!<)! =G2)!ped-up!!ped!!p! B4-!ped-up!!ped! | %28
 B2!>(! (A4!ped-up!!ped! =G2)!ped-up!!ped! | (F4!ped-up!!ped! ^E4-!ped-up!!ped! | %30
 E8-!ped-up!!ped!!ped-up!!ped!!>)! |!pp! E2 F2)!ped-up!!ped! z4!ped-up!!ped! | %32
[Q:1/4=80] z2[Q:1/4=84]"_delcissimo" (f'2!ped-up!!ped! e'2[Q:1/4=80] d'2)!ped-up!!ped! | %33
[Q:1/4=88] (^a>b c'4!ped-up!!ped! c2)!ped-up!!ped! | %34
 (^a4[Q:1/4=86]!ped-up!!ped![Q:1/4=84] b4[Q:1/4=80]!ped-up!!ped! | %35
[Q:1/4=88] !arpeggio!c'8)!ped-up!!ped![Q:1/4=84] |[Q:1/4=80] [ff']8!ped!!ped-up! | %37
 x8[Q:1/4=76][Q:1/4=74][Q:1/4=72][Q:1/4=70][Q:1/4=68] | x2 z2 z!p![Q:1/4=80] (B,CD) | %39
[Q:1/4=84] (E>!ped!F E2) z!<(! (E!ped-up!!ped!F=G)!ped-up! | %40
 (B!ped!cAd)!<)!!p! (=c2!ped-up!!ped! BF)!ped-up! | %41
{/A} (=G!ped-up!!ped!FEB,) (^C3!ped-up!!ped! E) | %42
 [F,F]4!ped-up!!ped! z!p!"_cresc." (EF!ped-up!!ped!=G) | %43
 (A>!ped!B A2) z!p!!<(! (A!ped-up!!ped!B=c)!ped-up! | %44
 (e!ped!!<)!fd=g[Q:1/4=70]!mp! f)!pp![Q:1/4=82] (B,!ped-up!!ped!CD)!ped-up! | %45
[Q:1/4=84] (C>!ped!D C2) z!ped-up!!ped! (DEF)!ped-up! | (C>!ped-up!!ped!D C2) z2!ped-up!!ped! C2 | %47
!<(! ^D2!ped-up!!ped! ^E2 [CF]2!ped-up!!ped! [^DA]2!<)! | %48
!p! [^EG]3!ped! z[Q:1/4=80] x2[Q:1/4=78] ^e[Q:1/4=76]!p! z!ped-up![Q:1/4=82] || %49
[K:Gb][Q:1/4=84]!p! (E>!ped!F E2) z!<(! (E!ped-up!!ped!FG)!ped-up! | %50
 (B!ped!=cAd)!<)!!p! (_c2!ped-up!!ped! BF)!ped-up! | %51
{/A} (G!ped-up!!ped!FEB,) (=C3!ped-up!!ped! E) | %52
 [F,F]4!ped-up!!ped! z!p!"_cresc." (EF!ped-up!!ped!G) | %53
 (A>!ped!B A2) z!p!!<(! (A!ped-up!!ped!B_c)!ped-up! | %54
 (e!ped!!<)!fdg[Q:1/4=70]!mp! f)[Q:1/4=82]!pp! (D!ped-up!!ped!E_F)!ped-up! | %55
[Q:1/4=84] (E>!ped!_F E2) z!ped-up!!ped! (_FGA)!ped-up! | %56
 (E>!ped-up!!ped!_F E2) z2!ped-up!!ped! E2 | %57
[Q:1/4=90]!<(! F2!ped-up!!ped! =G2[Q:1/4=88] [EA]2!ped-up!!ped![Q:1/4=84] [Fc]2!<)! | %58
!p![Q:1/4=80]"_dolce" [GB]2!ped!"^Poco più animato."[Q:1/4=92] [bb']2 [aa']2!ped-up!!ped! ([gg']>[ff'])!ped-up! | %59
 [Bb]2!ped! [dd']2 [ee']4-!ped-up!!ped!!ped-up! | %60
 [ee']2!ped!!<(! ([=G=g][Aa]) [Bb]!ped-up!!ped!!<)!!>(! ([dd']2 [cc'])!>)!!ped-up! | %61
!p! ([Bb]6!ped!!ped-up!!ped! [Aa]2!ped-up! | %62
 (3:2:2[Bb]2)!ped!!mf! (d(3d'!ped-up!!ped!g) (=d(3=d'b)!<(! (e(3e'b) (f!ped-up! | %63
(3f'!ped!b) (g(3g'b) (=g[Q:1/4=92](3=g'e') (b(3b'g')!8va(! (e'!<)!!ped-up![Q:1/4=60] | %64
 (3e''!ped!=g') (c'(3c''e') (b(3b'e') (a(3a'!>(!e')!8va)! (g!ped-up! | %65
(3g'!ped!b) (f(3f'b) (=e(3=e'b)[Q:1/4=88] (f(3f'b)[Q:1/4=80] (B!>)!!ped-up! | %66
[Q:1/4=60]!p!b)!ped-up!!ped! z [ee']2 [dd']2 ([cc']>[Bb])[Q:1/4=92] | %67
!<(! [Ee]2!ped! [Gg]2!<)! [Aca]4-!ped-up!!ped!!ped-up! | %68
 [Aca]2!ped!!p! [Bb]2[Q:1/4=88]!>(! ([Aa]2!ped-up!!ped![Q:1/4=84] [Gg]2)!ped-up! | %69
 ([Ff]4!ped! [Ee]2) z2!>)!!ped-up![Q:1/4=92] |!p! z2!ped! (e2 d2!ped-up!!ped! c>B)!ped-up! | %71
!<(! (E2!ped!!<)!!p! G2) A4- | A2!ped!!p!!>(! (B2 A2!ped-up!!ped! G>F)!>)!!ped-up! | %73
!p!!<(! (B,2!ped!!<)! D2) E4-!ped-up!!ped!!ped-up! | %74
!>(! E2!ped! F2 (E2!ped-up!!ped! D)!>)!!p! z!ped-up! | %75
[Q:1/4=90]!>(! z2!ped! F2 (E2!ped-up!!ped! D)!>)! z!ped-up! | %76
 z4!ped!"^ri         -"[Q:1/4=88] _F4!ped-up!!ped!!ped-up! | %77
[Q:1/4=84]"^tar            -"!>(! (__E6!ped![Q:1/4=80][Q:1/4=76]"^dan  -" G2) | %78
[Q:1/4=72]"^do" (6:4:6fda[Q:1/4=68]c'f'[Q:1/4=60]d'!pp! d''!>)![Q:1/4=30] !fermata!z!ped-up! | %79
[K:A][Q:1/4=92]!pp!"_delicato"!8va(! (3(^e'!ped!b'=e'' (3d''g''b')[Q:1/4=96] (3(=e'!ped-up!!ped!^a'd'' (3c''=g''a')[Q:1/4=100] (3(^d'!ped-up!!ped!=a'c'' (3^b'f''a')[Q:1/4=104] (3(=d'!ped-up!!ped!g'c'' (3=b'^e''g')[Q:1/4=108] (3(c'!ped-up!!ped!=g'b' (3^a'=e''g')!ped-up! | %80
[Q:1/4=116] (3(^b!ped!f'=b' (3a'^d''f')[Q:1/4=124] (3(=b!ped-up!!ped!^e'b'[Q:1/4=128] (3a'=d''e'!8va)!(3b^eb[Q:1/4=136] (3ad'f[Q:1/4=140](3B^EB)[Q:1/4=100] (3(A!ped-up!!ped!c^E[Q:1/4=90](3B,[K:bass]^E,B,)[Q:1/4=80](3x!ped-up!!ped!CE,[Q:1/4=60](3B,,G,[Q:1/4=10] !fermata!z!ped-up! | %81
[K:treble]"^Tempo Ⅰ．\n"[Q:1/4=84]!p! z2!ped! [ff']2!ped-up!!ped! [ee']2 [dd']2!ped-up!!ped! | %82
 ([Aa]>[Bb]) [cc']4!ped-up!!ped! [Ff]2!ped-up!!ped! | %83
 [Bb]3 [cc']!ped-up!!ped! [Bb] ([Aa]2 [Gg])!ped-up!!ped! | %84
{/b} ([Aa]>[Gg]) [Ff]4!ped-up!!ped! z2!ped-up!!ped! | %85
 z2 [ff']2!ped-up!!ped! [ee']2 [dd']2!ped-up!!ped! | %86
 ([Aa]>[Bb]) [cc']4!ped-up!!ped! [Ff]2!ped-up!!ped! | %87
!p! [Bb]3 [Bb]-!ped-up!!ped! [Bb]!>(! ([cc']2{/e'} [dd'])!ped-up!!ped! | %88
 ([cc']>[Bb]) [Aa]4!ped-up!!ped!!>)! (C2-!ped-up!!ped! | %89
!p! C2 ^D>!ped-up!!ped!E F2 G2)!ped-up!!ped! | (^D3{/F} E!ped-up!!ped! C2) G2!ped-up!!ped! | %91
 (F2 G>!ped-up!!ped!A B2 c2)!ped-up!!ped! | (G3{/B} A!ped-up!!ped! F2) z2!ped-up!!ped! | %93
!p! z2"_dolce"[Q:1/4=80] (A2!ped-up!!ped! B2[Q:1/4=78] c2)!ped-up!!ped! | %94
[Q:1/4=84] (G3 ^E!ped-up!!ped! F2) A2!ped-up!!ped! |!<(! (G2 ^^C4!ped-up!!ped! ^D2)!ped-up!!ped! | %96
 (F4!ped-up!!ped! E2)!<)! z2!ped-up!!ped! | %97
!mf! z2[Q:1/4=82] (d2!ped-up!!ped! e2[Q:1/4=80] f2)!ped-up!!ped! | %98
[Q:1/4=84] (c3 ^A!ped-up!!ped! B2) d2!ped-up!!ped! | (c2 ^^F4!ped-up!!ped! G2)!ped-up!!ped! | %100
 (B4!ped-up!!ped! A2)[Q:1/4=80] z2!ped-up!!ped![Q:1/4=70] | %101
!f! z2 [ff']2 [gg']2 [aa']2!ped-up![Q:1/4=84] | %102
[Q:1/4=70] [ee']3!ped! [^^c^^c'] [^df^b^d']4!ped-up![Q:1/4=84] | %103
[Q:1/4=74] z!ped!!<(! (3(^E/F/G/[Q:1/4=76](3A/^B/c/[Q:1/4=78](3^e/f/g/(3a/^b/c'/(3^e'/f'/g'/[Q:1/4=80](5:4:5b'/4!<)!a'/4!>(!f'/4^d'/4=b/4(6:4:6a/4f/4^d/4=B/4A/4F/4)!>)!!ped-up! | %104
!f![Q:1/4=84] [Ee]3!ped! [^^C^^c] [^D^d]4!ped-up! | %105
 z2!ped![Q:1/4=82] [Gg]2 [Ff]2[Q:1/4=80] [Ee]2!ped-up! | %106
[Q:1/4=84] ([Cc]2!ped! [=D=d]2) [Ff]4-!ped-up! | %107
 [Ff]2!ped!!f![Q:1/4=80] ([Ee]4!f![Q:1/4=76] [Dd]2)!ped-up! | %108
[Q:1/4=84]!mf!"_dim." [Cc]4!ped! [^B,^B]4- |!>(! [B,B]8!>)!!ped-up![Q:1/4=80][Q:1/4=76][Q:1/4=72] | %110
!p! [Ac]2!ped!"^Poco più animato."[Q:1/4=92]"_dolce" [c'c'']2 [bb']2!ped-up!!ped! ([aa']>[gg'])!ped-up! | %111
 [cc']2!ped! [ee']2 [ff']4-!ped-up!!ped!!ped-up! | %112
 [ff']2!ped!!<(! ([^A^a][Bb]) [cc']!ped-up!!ped!!<)!!>(! ([ee']2 [dd'])!>)!!ped-up! | %113
!p! ([cc']6!ped!!ped-up!!ped! [Bb]2!ped-up! | %114
 (3:2:2[cc']2)!ped!!mf!!ped! (E!ped-up!(3e!ped-up!!ped!A)!ped! (^E(3^ec)!ped-up!!ped! (F(3fc)!ped-up!!ped! (G!ped-up! | %115
(3g!ped!c)!ped-up!!ped! (A(3ac)!ped-up!!ped! (^A(3^af)!ped-up!!ped! (c(3c'a)!ped-up!!ped! (f | %116
(3f'^a)!ped-up!!mf!!ped! (d(3d'!ped-up!!ped!f)!ped-up!!ped! (c(3c'f)!ped-up!!ped! (B(3bf)!ped-up!!ped!!>(! (A!ped-up! | %117
 (3a!ped!c)!ped-up!!ped! (G(3gc)!ped-up!!ped! (^^F(3^^fc)!ped-up!!ped! (G(3gc)!ped-up!!ped! (C!>)! | %118
!p!c)!ped-up!!ped!!ped-up! z [ff']2 [ee']2 ([dd']>[cc']) | %119
!<(! [Ff]2!ped! [Aa]2!<)!!p! [Bdb]4-!ped-up!!ped!!ped-up! | %120
 [Bdb]2!ped! [cc']2 ([Bb]2!ped-up!!ped! [Aa]2)!ped-up! | ([Gg]4!ped! [Ff]2) z2!ped-up! | %122
!p! z2!ped! (f2 e2!ped-up!!ped! d>c)!ped-up! |!<(! (F2!ped!!<)! A2)!p! B4-!ped-up! | %124
 B2!ped!!>(! (c2 B2!ped-up!!ped! A>G)!>)!!ped-up! | %125
!p!!<(! (C2!ped!!<)! E2) F4-!ped-up!!ped!!ped-up! | %126
!p!!>(! F2!ped! G2"^poco rit."[Q:1/4=84] (F2!ped-up!!ped![Q:1/4=76] ^E2)!>)!!ped-up! | %127
[Q:1/4=92]"^a tempo" =E4-!ped! E z z[K:bass] x!ped-up!!ped!!ped-up! | %128
 (6:4:6D,^E,^A,G,D,!ped!(E,!ped-up! (6:4:6G,B,=EDG,)!ped-up!(=E,!ped! | %129
"^poco" (6:4:6=G,^A,D!pp!!<(!CG,)"^a"(A,!ped-up!!ped![Q:1/4=96] (6:4:6CE=A=G"^poco"C)[K:treble](B,!ped-up!!ped! | %130
[Q:1/4=100] (6:4:6D"^accell."^E^A^GD)(E!ped-up!!ped![Q:1/4=104] (6:4:6GB=edG)(=E!ped-up!!ped! | %131
[Q:1/4=112] (6:4:6=G^AdcG)(A!ped-up!!ped![Q:1/4=120] (6:4:6ce=a=gc)(e!ped-up!!ped! | %132
[Q:1/4=128] (6:4:6=g^ad'c'g)(a!ped-up!!ped![Q:1/4=136] (6:4:6c'e'=a'!<)!=g'c')e'!ped-up!!ped! | %133
[Q:1/4=144]!8va(! (6:4:6=g'^a'!>(!d''c''g'e'!8va)![Q:1/4=152] (6:4:6^ad'c'=ge^A | %134
[Q:1/4=132] (6:4:6dc=GE^A,"^ritard."D[Q:1/4=100] (6:4:6C[I:staff +1]=G,E,[Q:1/4=80] ^A,,!>)![Q:1/4=70]E,,[Q:1/4=60]C,, | %135
[I:staff -1] z8 | %136
"^Più lento."[Q:1/4=64]!mf! z2"_pesante" (D2 C2[Q:1/4=40] B,2)!ped!!ped-up![Q:1/4=64] | %137
 (^A,>B, C4 F2) |!>(! (^A>!ped!B c4 [Ff]2)!ped-up!!ped! | %139
 ([^A^a]>"_riten. molto"[Bb][Q:1/4=60] [cc']2)!ped-up!!ped![Q:1/4=56] ([ff']2[Q:1/4=48] [a^a']>!ped-up!!ped!!>)!!pp![bb'] | %140
[Q:1/4=60] [c'f'c'']4) z4 | x4[Q:1/4=54] c^af[Q:1/4=40]c' |[Q:1/4=60] ^a'2 z2 z4!ped-up!!ped! | %143
!pp! [fc']8- | [fc']8- | [fc']4 z4 |] %146
V:2
 z8 | z8 | z2 (F,2 E,2 D,2) | !arpeggio![A,F]4 !arpeggio![F,D]3 (F,, | C,B,A,)(C, F,DC)(F,, | %5
 C,B,A,)(C, F,DC)(F,, |!pp! C,B,A,)(D, F,CB,)(C, | F,B,A,)(A,, F,DC)(G,, | F,ED)(C, ^E,CB,)(F,, | %9
 C,B,A,)(C, F,DC)(F,, | C,B,!<(!A,)(B,, F,CB,)(E,, | E,B,A,)(E, A,E!<)!^D)(E,, | %12
!p! E,B,A,)(E,!>(! G,E=D)(A,, | E,DC)!>)!(E, A,DC)(A,, |!pp! ^D,=CB,)(A,, =D,A,G,)(A,, | %15
 C,F,^E,)(A,, C,G,F,)(D, |!<(! F,CB,)(C,!p! =G,CB,)(F,, | E,B,^A,)(B,, D,!<)!=G,F,)(D, | %18
 F,CB,)!p!(B,, F,D) z (E,, | E,[I:staff -1]E[I:staff +1]D)(E, G,FE)(^E,, | %20
 G,[I:staff -1]=ED)[I:staff +1](C, ^E,DC)(F,, | C,DC)(C, F,DC)(B,, | F,E!<(!D)(G,, F,CB,)(C,,!<)! | %23
!p!!>(! F,[I:staff -1]ED)[I:staff +1](C, ^E,!>)!DC)(D, |!pp! F,!<(!CB,)(G,, F,C)B,(C,,!<)! | %25
!>(! F,[I:staff -1]ED)[I:staff +1](C,!>)! ^E,DC)(A,, | F,D!pp!!<(!C)(C, F,DC)(B,, | %27
 D,E!<)!D)(D,!p! =G,ED)(B,, | D,DC)!>(!(D, =G,CB,)(B,, | ^G,ED)(D, G,CB,)(B,, | %30
 G,=ED)(D, G,CB,)(F,,!>)! |!pp! C,B,^A,)(C, F,DC)(F,, | C,B,^A,)(D, F,CB,)(C, | %33
 F,B,^A,)(^A,, F,DC)(F,, | C,B,^A,)(D, F,CB,)(C, | F,B,^A,)^A,, F,DCF, | z (F,,,2 F,, C,B,^A,F, | %37
 C^A[I:staff -1]F"^perdendosi"!>(!c ^a[I:staff +1][K:treble]f!8va(![I:staff -1]c'^a')!>)! | %38
[I:staff +1][K:bass][I:staff -1] f''2!8va)![I:staff +1] z2 z4 | %39
!p! (6:4:6(D,,B,,E,D,G,E, B,)!<(! z [A,,=G,]2 | %40
 (6:4:6(D,,A,,^E,A,,F,D,!<)!!p! (6:4:6A,) (D,,A,,F,A,,D,,- | %41
 (6:4:6D,,D,,B,,=G,B,,D,,-!>(!!>(! (6:4:6D,,D,,_B,,E,B,,D,,-!>)!!>)! | %42
!p! (6:4:6D,,^A,,E,D,B,,D,,) z2 [_B,,=G,]2 | (6:4:6(D,,A,,=G,E,A,G, C)!p!!<(! z [D,=C]2 | %44
 (6:4:6(=G,,^C,!<)!^A,D,B,B,,!mp! [F,D]) z!pp! [^G,,B,,F,]2 | %45
 (6:4:6z (C,,G,,G,G,,C,,- (6:4:6C,,C,,G,,G,G,,C,,- | %46
 (6:4:6C,,C,,G,,G,G,,C,,- (6:4:6C,,B,,,G,,^E,G,,B,,,- | %47
 (6:4:6B,,,A,,,F,,C,F,,A,,,- (6:4:6A,,,F,,,C,,C,C,,F,,,) | %48
!p!!>(! (6:4:6C,,,C,,G,,^E,C,!>)!!p!G,-[I:staff -1](3^E!<(!CG[I:staff +1] x2!<)! || %49
[K:Gb]!p! (6:4:6(D,,B,,E,D,=G,E, B,)!<(! z [A,,_G,]2 | %50
 (6:4:6(D,,=G,,=E,A,,F,D,!<)!!p! (6:4:6A,) (D,,A,,F,A,,D,,- | %51
 (6:4:6D,,D,,B,,G,B,,D,,-!>(!!>(! (6:4:6D,,D,,__B,,E,B,,D,,-!>)!!>)! | %52
 (6:4:6D,,=A,,E,D,B,,!p!D,,) z2 [__B,,G,]2 | (6:4:6(D,,A,,G,E,A,G, =C)!p!!<(! z [D,_C]2 | %54
 (6:4:6G,,!<)!=C,=A,D,B,B,,!p! [F,D] z!pp! [B,,D,_B,]2 | %55
 (6:4:6z (E,,B,,B,B,,E,,- (6:4:6E,,E,,B,,B,B,,E,,- | %56
 (6:4:6E,,E,,B,,B,B,,E,,- (6:4:6E,,D,,B,,=G,B,,D,,- | %57
 (6:4:6D,,C,,A,,E,A,,C,,- (6:4:6C,,A,,,E,,E,__E,__E,,) | %58
!p! (6:4:6(D,,F,B,G,DD, (6:4:6B,G,=D_D,B,G, | (6:4:6ED,B,G,_FD, (6:4:6B,=G,FD,B,_G, | %60
 (6:4:6_FD,CA,FD, (6:4:6CA,ED,CA, |!p! (6:4:6__ED,CG,ED, (6:4:6CF,DD,CF, | %62
 (3DD,[G,B,])"^marcato"!mf! B2 A2 (G>F) | B,2 D2 E4- | E2!<(! (=G,A,)!<)! B, (D2 C) | ([=D,B,-]8 | %66
 (3[G,B,])!p! (E,,B,,(3G,E,B, (6:4:6GB,E,G,B,,E,,) | %67
 (6:4:6z (E,,C,A,C,E,,) (6:4:6z!p! (__E,,C,G,C,E,,) | %68
 (6:4:6z (D,,B,,G,B,,D,,)!>(! (6:4:6z (_E,,B,,B,B,,E,,) | %69
 (6:4:6z (A,,,A,,=C,A,G, (6:4:6=CG,A,C,A,,A,,,)!>)! | %70
!pp! (6:4:6D,,D,_C,A,,D,,D, (6:4:6B,,D,,E,A,,D,,G, | x2"^poco marcato" B,2!p! A,2 (3:2:2G,2 F, | %72
 (E,2 __E,2) D,4 |!p! z2!p!!p! (F,2 E,2 (3:2:2D,2 =C,) | (B,,2 __B,,2 A,,4) | (B,,2 __B,,2 A,,4) | %76
!pp! (_C,4 __B,,4 | A,,) x x2 (6:4:6A,DF[I:staff -1]DAc |[I:staff +1] z4 z !fermata!z | %79
[K:A][K:treble] z (g'bc) z (=g'^ac) z (f'=ac) z (^e'gc) z (=e'=gc) | %80
 z (^d'fc) z (=d' [c^eb]2) x2 z2 x2[K:bass] !arpeggio![C,,B,,^E,]2 x2 !fermata!z2 x2 | %81
 (6:4:6z!p! (A,,F,DC)(B,, (6:4:6F,CB,FF,)(C, | (6:4:6F,B,A,FF,)(D, (6:4:6F,CB,DF,)(G,, | %83
 (6:4:6F,EDFF,)(C, (6:4:6^E,CB,^EE,)(F,, | (6:4:6C,CB,A,C)(C, (6:4:6F,B,A,FF,)(A,, | %85
 (6:4:6C,G,F,CF,)(B,,!<(!!<(! (6:4:6F,CB,FF,)(E,, | %86
 (6:4:6E,DCEA,)(E, (6:4:6A,D=C!<)!^D!<)!A,)(E,, |!p! (6:4:6E,B,A,=DA,)(E, (6:4:6G,!>(!EDGG,)(A,, | %88
 (6:4:6E,EDCE)(E, (6:4:6A,,F,E,!>)![I:staff -1]C!p![I:staff +1]E,)(A,, | %89
 (6:4:6^D,G,F,CF,)(G,, (6:4:6D,G,F,^B,D,)(C,, | (6:4:6G,,G,F,A,^B,,)(G,, (6:4:6C,F,E,G,E,)(A,, | %91
 (6:4:6C,G,F,CC,)(G,, (6:4:6D,CB,F,G,,)(C,, | (6:4:6C,F,^E,B,C,)(F,, (6:4:6C,G,F,A,C,)(A,, | %93
!p! (6:4:6C,G,F,CC,)(F,, (6:4:6C,G,F,A,C,)(B,,, | %94
 (6:4:6B,,[I:staff -1]C[I:staff +1]B,A,^D,)(B,, (6:4:6D,B,A,F,D,)(^B,,, | %95
 (6:4:6^D,!<(!G,F,A,^B,,)(G,, (6:4:6B,,G,F,A,B,,)(C,, | %96
 (6:4:6^A,,F,E,=G,C,)(A,, (6:4:6C,F,E,G,!<)!C,)(D,, | %97
!mp! (6:4:6B,,=G,F,B,D,)(B,, (6:4:6F,CB,DF,)(E,, | %98
 (6:4:6E,[I:staff -1]F[I:staff +1]EDG,)(E, (6:4:6G,EDB,G,)(^E,, | %99
!<(! (6:4:6G,!<(!CB,D^E,)(C, (6:4:6E,CB,DE,)(F,, | %100
 (6:4:6C,B,A,CF,)(C, (6:4:6F,B,A,C!<)!!<)!C,)(F,, | %101
!mf! F,) [A,CF][A,CG][A,CA] [A,CG][A,CF][A,C^E][A,CF] | %102
 [G,,G,] [F,G,^B,][G,B,F][F,G,B,]- [F,G,B,][G,B,F][F,G,B,][G,B,F] | %103
 [F,,,F,,] [C,A,][C,G,][C,F,] [C,^E,][C,F,][C,G,][C,A,] | %104
!mf! [F,,,G,,] [B,,F,][F,A,][B,,F,]- [B,,F,][F,A,][B,,F,][F,G,] | %105
 E,, [E,G,][G,C][E,G,]- [E,G,][G,C][C,G,][G,C] | %106
 F,, [A,,F,][A,,E,][A,,D,]!<(!!<(! [A,,C,][A,,D,][A,,^E,][A,,F,] | %107
 [D,F,G,][D,F,A,][F,A,C][F,A,D]!mf! [F,A,^E]!<)!!<)!!>(!!>(![F,A,F][F,A,G]!>)![F,A,F]!>)! | %108
!mp!!>(! z [F,,^D,][D,A,][F,,D,]- [F,,D,][D,A,][F,,D,][D,A,]- | %109
 [D,A,]"^riten."[F,,^D,][D,A,][F,,D,]- [F,,D,][D,A,][F,,D,][D,A,]!>)! | %110
!p! (6:4:6(E,,G,CA,EE, (6:4:6CA,^EE,CA, | (6:4:6FE,CA,=GE, (6:4:6C^A,GE,CA, | %112
 (6:4:6=GE,DB,GE, (6:4:6DB,FE,DB, |!p! (6:4:6=FE,DA,FE, (6:4:6DG,EE,DG, | %114
 (3EE,A,)"^marcato"!mf! C2!<(!!<(! B,2 (A,>G,) | C,2 E,2 F,4-!<)!!<)! | %116
 F,2!mf!!<(! (^A,,B,,)!<)! C,!>(!!>(! (E,2!>)! D,) | [^E,,C,-]8!>)! | %118
 (3[A,,C,]!p! (F,,C,(3A,F,C (6:4:6ACF,A,C,F,,) | %119
!<(! (6:4:6z (F,,D,B,D,F,,)!<)!!p! (6:4:6z (=F,,D,A,D,F,,) | %120
 (6:4:6z (E,,C,A,C,E,,)!>(!!>(! (6:4:6z (^F,,C,CC,F,,) | %121
 (6:4:6z (B,,,G,,D,B,,G, (6:4:6DG,B,,D,G,,B,,,)!>)!!>)! | %122
!p! (6:4:6C,,F,A,,F,,C,,C, (6:4:6F,,C,,F,A,,C,,A, | x2"^poco marcato"!p! C2 B,2 (3:2:2A,2 G, | %124
 F,2 ^E,2 =E,4- | E,2!p!!p! (G,2 F,2 (3:2:2E,2 ^D,) |!p!!>(! (C,2 ^B,,2) (=B,,4!>)! | %127
!pp!!pp! (6:4:4A,,3) x x (A,, (6:4:6C,E,=A,=G,E,)[I:staff -1]B,, | %128
[I:staff +1] (6:4:6z z!pp! (F,,, B,,,^E,,)(B,, (6:4:6E,,D,,F,,,B,,,E,,)(^A,, | %129
 (6:4:6=E,,C,,F,,,^A,,,E,,)(E, (6:4:6^A,,=G,,C,,E,,A,,)(^E, | %130
 (6:4:6B,,^G,,D,,^E,,B,,)(B, (6:4:6^E,D,G,,B,,E,)(^A, | %131
 (6:4:6=E,C,F,,^A,,E,)(E (6:4:6^A,=G,C,E,A,)(^A | (6:4:6ECF,^A,E)[K:treble](e (6:4:6^A=GCEA)(^a | %133
 (6:4:6ecF^Ae) z z4 |[K:bass] x8 | F,,,2 z2 z4 | z4!mp! [F,,D,]4 | !arpeggio![F,,,C,,F,,C,]6 z2 | %138
 z2 (F,,2 E,,2 D,,2) | !arpeggio![C,,A,,F,]4 !arpeggio![B,,,F,,D,]3 !>!F,,, | %140
 C,,^A,,F,,D, C,^A,F,D | C^A[I:staff -1]Fd[I:staff +1] z4 | z8 | %143
{F,C} (^A>B)[I:staff -1] (c4[I:staff +1] C2) | ^A8- |!ppp! A4 z4 |] %146
V:3
 x8 | x8 | x6 x3/2 x/4x/4 | C,4 B,,3 x | x8 | x8 | x8 | x8 | x8 | x8 | x8 | x8 | x8 | x8 | x8 | %15
 x8 | x8 | x8 | x8 | x8 | x8 | x8 | x8 | x8 | x8 | x8 | x8 | x8 | x8 | x8 | x8 | x8 | x8 | x8 | %34
 x8 | x8 | ^A8 | x5[K:treble] x!8va(! x2 |[K:bass] x2!8va)! x6 | x8 | x8 | x8 | x8 | x8 | x8 | x8 | %46
 x8 | x8 | (6:4:3x4 x !>!G, x4 ||[K:Gb] x8 | x8 | x8 | x8 | x8 | x8 | x8 | x8 | x8 | x8 | x8 | x8 | %61
 x8 | x8 | x2 x3/2 (3x/4x/4x/4 !arpeggio![D,=G,B,]4- | [D,G,B,]2 z2 [D,A,]4 | B,6 A,2 | %66
 E, x x2 x4 | x8 | x8 | x8 | x8 | (6:4:6C,D,, E, B,G,E, (6:4:6A,E,C,G,A,,F, | %72
 (6:4:6E,C,D,,__E,C,D,, (6:4:6z D,,B,,B,B,,D,, | (6:4:6z D,,B,,F,D,B,, (6:4:6E,B,,G,,D,E,,=C, | %74
 (6:4:6B,,G,,D,,__B,,G,,D,, (6:4:6z D,,A,,F,A,,D,, | %75
 (6:4:6B,,G,,D,,__B,,G,,D,, (6:4:6z D,,A,,F,A,,D,, | %76
 (6:4:6z D,,A,,F,A,,D,, (6:4:6z D,,G,,=C,G,,D,, | (6:4:6z D,,A,,_C,F,D, x4 | x6 | %79
[K:A][K:treble] x20 | x14[K:bass] x8 | x8 | x8 | x8 | x8 | x8 | x8 | x8 | x8 | x8 | x8 | x8 | x8 | %93
 x8 | x8 | x8 | x8 | x8 | x8 | x8 | x8 | x8 | x8 | x8 | x8 | x8 | x8 | x8 | x8 | x8 | x8 | x8 | %112
 x8 | x8 | x8 | x2 x3/2 (3x/4-x/4-x/4- !arpeggio![E,,^A,,C,]4- | [E,,A,,C,]2 z2 [E,,B,,]4 | %117
 C,6 B,,2 | F,, x x2 x4 | x8 | x8 | x8 | x8 | (6:4:6C,C,, F, CA,F, (6:4:6B,F,D,A,B,,G, | %124
 (6:4:6F,D,E,,^E,B,,C,, (6:4:6z C,,A,,C,A,,C,, | (6:4:6z C,,G,,G,E,C, (6:4:6F,C,A,,E,F,,^D, | %126
 (6:4:6C,A,,C,,^B,,F,,C,, (6:4:6z C,,G,,D,G,,C,, | (6:4:6z F,,,C,,F,,C, z x4 | x8 | x8 | x8 | x8 | %132
 x10/3[K:treble] x14/3 | x8 |[K:bass] x8 | x8 | x6 x3/2 (3x/4-x/4-x/4- | x8 | x6 x3/2 x/4-x/4- | %139
 x2 x3/2 x/4-x/4- x4 | x8 | x8 | x6 x3/2 x/4x/4 | x>x x2 x4 | x8 | F,,,2 z2 z4 |] %146
V:4
 x8 | x8 | x8 | x4 !arpeggio![fb]4 | !arpeggio![af']2 x2 x4 | x8 | x8 | x8 | x6 x x/>x/ | %9
 x3/2 x/ x2 x4 | x8 | x8 | x4 x x7/4x/4 x | x8 | F6 ^E2- | E2 C4 z2 | B6 =G2- | G2 F4 x2 | %18
 z4 B2 A2 | G6 z2 | x8 | F6 x2 | x8 | x8 | x8 | x8 | x8 | x8 | x8 | x8 | x8 | x8 | x8 | x8 | %34
 z2 (f2 e2 d2) | (^A>B c4[I:staff +1] C2) | x8 | x8 | x8 |[I:staff -1] [G,B,]4 z2 C2 | %40
 (^E2 F2) F2 =C2 | B,4 =G,4 | (C2 B,2) z2 D2 | [CE]4 z2 F2 | (^A2 B2) [FB] x x2 | %45
 [^E,B,]4 x [F,B,]3 | [^E,B,]4 x2 [G,C]2 | [F,C]4 A,4 | C3 x[I:staff +1] G,^A,^B,C || %49
[K:Gb][I:staff -1] [=G,B,]4 z2 =C2 | (=E2 F2) F2 _C2 | B,4 G,4 | (=C2 B,2) z2 D2 | [=CE]4 z2 F2 | %54
 (=A2 B2) [FB] x x2 | [=G,D]4 x [A,D]3 | [=G,D]4 x2 [B,E]2 | [A,E]4 C4 | D2 x2 x4 | x8 | x8 | x8 | %62
 x8 | x22/3!8va(! x2/3 | x22/3!8va)! x2/3 | x8 | x4 g4 | x8 | x4 B4 | A6 x2 | x2 F4 G2 | %71
 E4 [CE]4- | [CE]2 [CF]2 [B,D]4 | B,4 [G,B,]4- | [G,B,]2 [G,=C]2 [F,A,]3 x | x2 [G,=C]2 [F,A,]3 x | %76
 x4 [G,=C]4 | [F,_C]3 z x4 | x6 |[K:A]!8va(! x20 | x8!8va)! x26/3[K:bass] x16/3 |[K:treble] x8 | %82
 x8 | x8 | x8 | x8 | x8 | x8 | x8 | x8 | x8 | F6 D2- | D2 C4 x2 | z4 (F2 E2 | ^D6) z2 | x8 | %96
 ^C6 x2 | z4 (B2 A2 | G6) z2 | x8 | F6 x2 | x2 c'4 c'2 | [f^b]4 x4 | x8 | (A6 G2) | x2 c4 G2 | %106
 A8- | A2 A6 | A8- | A8 | C2 x2 x4 | x8 | x8 | x8 | x8 | x8 | x8 | x8 | x4 a4 | x8 | x4 c4 | %121
 B6 x2 | x3/2 x/4-x/4- !arpeggio![CA]4 F2 | F4 [DF]4- | [DF]2 [DG]2 [CE]4 | C4 [A,C]4- | %126
 [A,C]2 [A,^D]2 [G,=D]4 | [=G,C]4- [G,C] x x2[K:bass] | x8 | x22/3[K:treble] x2/3 | x8 | x8 | x8 | %133
!8va(! x4!8va)! x4 | x8 | x8 | z4 [^E,^G,]4 | F,6 z2 | x8 | x8 | x8 | x8 | x8 | z2 c6- | c8- | %145
 c4 x4 |] %146
V:5
 x8 | x8 | x8 | x2 x3/2 x/4x/4 x2 x3/2 x/4 x/8x/8 | x8 | x8 | x8 | x8 | x8 | x8 | x8 | x8 | x8 | %13
 x8 | x8 | x2- x/>x/ x x4 | x8 | x2- x/>x/ x x4 | x8 | x8 | x8 | x8 | x8 | x8 | x8 | x8 | x8 | x8 | %28
 x8 | x8 | x8 | x8 | x8 | x8 | x6 x7/4 x/4 | x8 | x8 | x8 | x8 | x8 | x8 | x x x2 x4 | x8 | x8 | %44
 x8 | x8 | x8 | x8 | x8 ||[K:Gb] x8 | x8 | x x x2 x4 | x8 | x8 | x8 | x8 | x8 | x8 | x8 | x8 | x8 | %61
 x8 | x8 | x22/3!8va(! x2/3 | x22/3!8va)! x2/3 | x8 | x8 | x8 | x8 | x8 | x8 | x8 | x8 | x8 | x8 | %75
 x8 | x8 | x8 | x6 |[K:A]!8va(! x20 | x8!8va)! x8 x2[K:bass] (6:4:4A,3 x G, z |[K:treble] x8 | x8 | %83
 x8 | x8 | x8 | x8 | x8 | x8 | x8 | x8 | x8 | x8 | x8 | x8 | x8 | x8 | x8 | x8 | x8 | x8 | x8 | %102
 x8 | x8 | x8 | x8 | x8 | x8 | x8 | x8 | x8 | x8 | x8 | x8 | x8 | x8 | x8 | x8 | x8 | x8 | x8 | %121
 x8 | x8 | x8 | x8 | x8 | x8 | x7[K:bass] x | x8 | x22/3[K:treble] x2/3 | x8 | x8 | x8 | %133
!8va(! x4!8va)! x4 | x8 | x8 | x8 | x8 | x8 | f4 b2 f'2 | x8 | x8 | x8 | x8 | x8 | x8 |] %146
V:6
 x8 | x8 | x8 | x8 | x8 | x8 | x8 | x8 | x8 | x8 | x8 | x8 | x8 | x8 | x8 | x8 | x8 | x8 | x8 | %19
 x8 | x8 | x8 | x8 | x8 | x8 | x8 | x8 | x8 | x8 | x8 | x8 | x8 | x8 | x8 | x8 | x8 | x8 | x8 | %38
 x8 | x8 | D4 x3 x3/4 x/4 | x8 | x8 | x8 | =G4 x4 | x8 | x8 | x8 | x8 ||[K:Gb] x8 | %50
 D4 x3 x3/4 x/4 | x8 | x8 | x8 | G4 x4 | x8 | x8 | x8 | x8 | x8 | x8 | x8 | x8 | x22/3!8va(! x2/3 | %64
 x22/3!8va)! x2/3 | x8 | x8 | x8 | x8 | x8 | x8 | x8 | x8 | x8 | x8 | x8 | x8 | x8 | x6 | %79
[K:A]!8va(! x20 | x8!8va)! x26/3[K:bass] x16/3 |[K:treble] x8 | x8 | x8 | x8 | x8 | x8 | x8 | x8 | %89
 x8 | x8 | x8 | x8 | x8 | x8 | x8 | x8 | x8 | x8 | x8 | x8 | x8 | x8 | x8 | x8 | x8 | x8 | x8 | %108
 x8 | x8 | x8 | x8 | x8 | x8 | x8 | x8 | x8 | x8 | x8 | x8 | x8 | x8 | x8 | x8 | x8 | x8 | x8 | %127
 x7[K:bass] x | x8 | x22/3[K:treble] x2/3 | x8 | x8 | x8 |!8va(! x4!8va)! x4 | x8 | x8 | x8 | x8 | %138
 x8 | x8 | x8 | x8 | x8 | x8 | x8 | x8 |] %146

